X: 1
T: Auld Grey Cat
N: Kerr #1, Roaring Jelly
Z: John Chambers <jc@trillian.mit.edu>
M: C|
L: 1/8
K: EDorian
|: "Em"{^d}e2e2 E3F | GFGA BABc | "D"{c}d2d2 D3E | FAdB AFED |
|  "Em"{^d}e2e2 E3F | GFGA BABc | "D"{c}dcBA "B7"BAGF | "Em"E4 e2z2 :|
ed \
|: "Em"B2e2 e3d  | Bdef gfed | "D"A2d2 d3B | ABde fedf |
| "Em"e2B2 "D"g2B2 | "C"a2B2 "B7"b3a | "Am"gfed "B7"BAB^d | "Em"e6 z2 :|
%%sep 5 5 234
K:C
x8 x8 x8 x8 |
x8 x8 x8 x8 |
x8 x8 x8 x8 |
x8 x8 x8 x8 |
